dist/img/discounts/ant-design_youtube-outlined.svg

<svg width="26" height="26" viewBox="0 0 26 26" fill="none" xmlns="http://www.w3.org/2000/svg">
<path d="M24.375 12.9291C24.375 12.8732 24.375 12.8097 24.3725 12.7361C24.3699 12.5304 24.3648 12.2994 24.3598 12.0531C24.3395 11.3447 24.3039 10.6388 24.248 9.97358C24.1719 9.05698 24.0602 8.29272 23.9078 7.7189C23.747 7.12006 23.4319 6.5739 22.9939 6.13502C22.5559 5.69614 22.0104 5.3799 21.4119 5.21792C20.6934 5.02495 19.2867 4.90562 17.3062 4.83198C16.3643 4.79644 15.3562 4.77358 14.3482 4.76089C13.9953 4.75581 13.6678 4.75327 13.3732 4.75073H12.6268C12.3322 4.75327 12.0047 4.75581 11.6518 4.76089C10.6438 4.77358 9.63574 4.79644 8.69375 4.83198C6.71328 4.90815 5.3041 5.02749 4.58809 5.21792C3.98938 5.3795 3.44365 5.69561 3.0056 6.13455C2.56755 6.57349 2.25255 7.11986 2.09219 7.7189C1.9373 8.29272 1.82812 9.05698 1.75195 9.97358C1.69609 10.6388 1.66055 11.3447 1.64023 12.0531C1.63262 12.2994 1.63008 12.5304 1.62754 12.7361C1.62754 12.8097 1.625 12.8732 1.625 12.9291V13.0712C1.625 13.1271 1.625 13.1906 1.62754 13.2642C1.63008 13.4699 1.63516 13.7009 1.64023 13.9472C1.66055 14.6556 1.69609 15.3615 1.75195 16.0267C1.82812 16.9433 1.93984 17.7076 2.09219 18.2814C2.41719 19.4976 3.37187 20.4574 4.58809 20.7824C5.3041 20.9753 6.71328 21.0947 8.69375 21.1683C9.63574 21.2039 10.6438 21.2267 11.6518 21.2394C12.0047 21.2445 12.3322 21.247 12.6268 21.2496H13.3732C13.6678 21.247 13.9953 21.2445 14.3482 21.2394C15.3562 21.2267 16.3643 21.2039 17.3062 21.1683C19.2867 21.0921 20.6959 20.9728 21.4119 20.7824C22.6281 20.4574 23.5828 19.5001 23.9078 18.2814C24.0627 17.7076 24.1719 16.9433 24.248 16.0267C24.3039 15.3615 24.3395 14.6556 24.3598 13.9472C24.3674 13.7009 24.3699 13.4699 24.3725 13.2642C24.3725 13.1906 24.375 13.1271 24.375 13.0712V12.9291ZM22.5469 13.0611C22.5469 13.1144 22.5469 13.1728 22.5443 13.2414C22.5418 13.4394 22.5367 13.6578 22.5316 13.8939C22.5139 14.5693 22.4783 15.2447 22.425 15.8718C22.3564 16.6894 22.26 17.3597 22.1406 17.8091C21.9832 18.3957 21.5211 18.8603 20.9371 19.0152C20.4039 19.1574 19.0607 19.2716 17.2352 19.3402C16.3109 19.3757 15.3156 19.3986 14.3229 19.4113C13.975 19.4164 13.6525 19.4189 13.3631 19.4189H12.6369L11.6771 19.4113C10.6844 19.3986 9.6916 19.3757 8.76484 19.3402C6.93926 19.2691 5.59355 19.1574 5.06289 19.0152C4.47891 18.8578 4.0168 18.3957 3.85938 17.8091C3.74004 17.3597 3.64355 16.6894 3.575 15.8718C3.52168 15.2447 3.48867 14.5693 3.46836 13.8939C3.46074 13.6578 3.4582 13.4369 3.45566 13.2414C3.45566 13.1728 3.45312 13.1119 3.45312 13.0611V12.9392C3.45312 12.8859 3.45313 12.8275 3.45566 12.7589C3.4582 12.5609 3.46328 12.3425 3.46836 12.1064C3.48613 11.431 3.52168 10.7556 3.575 10.1285C3.64355 9.31089 3.74004 8.64057 3.85938 8.19116C4.0168 7.60464 4.47891 7.13999 5.06289 6.98511C5.59609 6.84292 6.93926 6.72866 8.76484 6.66011C9.68906 6.62456 10.6844 6.60171 11.6771 6.58901C12.025 6.58393 12.3475 6.5814 12.6369 6.5814H13.3631L14.3229 6.58901C15.3156 6.60171 16.3084 6.62456 17.2352 6.66011C19.0607 6.7312 20.4064 6.84292 20.9371 6.98511C21.5211 7.14253 21.9832 7.60464 22.1406 8.19116C22.26 8.64057 22.3564 9.31089 22.425 10.1285C22.4783 10.7556 22.5113 11.431 22.5316 12.1064C22.5393 12.3425 22.5418 12.5634 22.5443 12.7589C22.5443 12.8275 22.5469 12.8884 22.5469 12.9392V13.0611ZM10.7402 16.4025L16.6309 12.9748L10.7402 9.5978V16.4025Z" fill="white"/>
</svg>

<svg width="26" height="26" fill="none" xmlns="http://www.w3.org/2000/svg"><path d="M24.375 12.93c0-.057 0-.12-.003-.194-.002-.206-.007-.437-.012-.683a38.176 38.176 0 0 0-.112-2.08c-.076-.916-.188-1.68-.34-2.254a3.543 3.543 0 0 0-2.496-2.501c-.719-.193-2.125-.312-4.106-.386-.942-.036-1.95-.058-2.958-.071-.353-.005-.68-.008-.975-.01h-.746c-.295.002-.622.005-.975.01-1.008.013-2.016.035-2.958.071-1.98.076-3.39.195-4.106.386a3.538 3.538 0 0 0-2.496 2.5c-.155.575-.264 1.339-.34 2.256a38.237 38.237 0 0 0-.112 2.08c-.007.245-.01.476-.012.682 0 .074-.003.137-.003.193v.142c0 .056 0 .12.003.193.002.206.007.437.012.683.02.709.056 1.415.112 2.08.076.916.188 1.68.34 2.254a3.538 3.538 0 0 0 2.496 2.501c.716.193 2.125.313 4.106.386.942.036 1.95.059 2.958.071.353.005.68.008.975.01h.746c.295-.002.622-.005.975-.01 1.008-.012 2.016-.035 2.958-.07 1.98-.077 3.39-.196 4.106-.387a3.534 3.534 0 0 0 2.496-2.5c.155-.574.264-1.339.34-2.255.056-.666.091-1.371.112-2.08.007-.246.01-.477.012-.683 0-.073.003-.137.003-.193v-.142Zm-1.828.131c0 .053 0 .112-.003.18-.002.198-.007.417-.012.653a34.28 34.28 0 0 1-.107 1.978c-.069.817-.165 1.488-.284 1.937a1.708 1.708 0 0 1-1.204 1.206c-.533.142-1.876.257-3.702.325a115.609 115.609 0 0 1-3.872.079h-.726l-.96-.008c-.993-.012-1.985-.035-2.912-.07-1.826-.072-3.171-.184-3.702-.326a1.713 1.713 0 0 1-1.204-1.206c-.119-.45-.215-1.12-.284-1.937a36.77 36.77 0 0 1-.107-1.978c-.007-.236-.01-.457-.012-.653 0-.068-.003-.13-.003-.18v-.122c0-.053 0-.111.003-.18.002-.198.007-.417.012-.653.018-.675.054-1.35.107-1.977.069-.818.165-1.488.284-1.938a1.708 1.708 0 0 1 1.204-1.206c.533-.142 1.876-.256 3.702-.325a115.36 115.36 0 0 1 3.872-.079h.726l.96.008c.993.013 1.985.036 2.912.071 1.826.071 3.171.183 3.702.325.584.158 1.046.62 1.204 1.206.119.45.215 1.12.284 1.938.053.627.086 1.302.107 1.977.007.236.01.457.012.653 0 .069.003.13.003.18v.122ZM10.74 16.402l5.89-3.427-5.89-3.377v6.804Z" fill="#fff"/></svg>
